X: 123
T: Bucket of the Mountain Dew
M:4/4
R:song
L:1/8
Z:added by Alf warnock alf0@rogers.com - www.alfwarnock.info/alfs
K:A
%%text Verse
e2|"A"f2e2 c2A2|"D"B2A2 F2E2|"A"A2c2 B2A2|"E7"e6e2|
"A"f2e2 c2A2|"D"B2A2 F2E2|"A"A2c2 "E7"B2B2|"A"A6e2|
"A"f2e2 A2ce|f2e2 A2ce|f2e2 c2A2|"F#m"F7e|
"A"f2e2 c2A2|"D"B2A2 F2E2|"A"A2c2 "E7"BcB2|"A"A6ee|
%%text Chorus
"A"fgfe c2BA|"D"BcBA F2EF|"A"A2c2 B2A2|"E7"e6ee|
"A"fgfe c2AA|"D"BcBA F2EF|"A"A2c2 "E7"BcB2|"A"A6|]

